packages/vibrant-icons/assets/icons/Caption/Thin.svg

<svg width="24" height="24" viewBox="0 0 24 24" fill="none" xmlns="http://www.w3.org/2000/svg">
<path d="M18.0424 21.3502V15.1842H15.4049V13.8997H22.3459V15.1842H19.7084V21.3502H18.0424ZM8.5249 21.1002C8.38683 21.1002 8.2749 20.9883 8.2749 20.8502V19.4497C8.2749 19.3116 8.38683 19.1997 8.5249 19.1997H9.9249V4.8507H4.2999V6.4012C4.2999 6.53927 4.18797 6.6512 4.0499 6.6512H2.6499C2.51183 6.6512 2.3999 6.53927 2.3999 6.4012V3.2002C2.3999 3.06212 2.51183 2.9502 2.6499 2.9502H19.0999C19.238 2.9502 19.3499 3.06212 19.3499 3.2002V6.4012C19.3499 6.53927 19.238 6.6512 19.0999 6.6512H17.6999C17.5618 6.6512 17.4499 6.53927 17.4499 6.4012V4.8507H11.8244V19.1997H13.2244C13.3625 19.1997 13.4744 19.3116 13.4744 19.4497V20.8502C13.4744 20.9883 13.3625 21.1002 13.2244 21.1002H8.5249Z" fill="#0C0C0C"/>
</svg>

<svg xmlns="http://www.w3.org/2000/svg" width="24" height="24" fill="none"><path fill="#0C0C0C" d="M18.042 21.35v-6.166h-2.637V13.9h6.94v1.284h-2.637v6.166zm-9.517-.25a.25.25 0 0 1-.25-.25v-1.4a.25.25 0 0 1 .25-.25h1.4V4.85H4.3v1.551a.25.25 0 0 1-.25.25h-1.4a.25.25 0 0 1-.25-.25v-3.2a.25.25 0 0 1 .25-.25H19.1a.25.25 0 0 1 .25.25v3.2a.25.25 0 0 1-.25.25h-1.4a.25.25 0 0 1-.25-.25v-1.55h-5.626V19.2h1.4a.25.25 0 0 1 .25.25v1.4a.25.25 0 0 1-.25.25z"/></svg>
